X:34
T:Nincs szebb lány a magyar lánynál
M:4/4
L:1/4
K:D
D/F/A/G/ F<E | D2 D z |
A/c/e/d/ c<B | A2 A z |
dedc | dABA |
D/F/A/G/ F<E | D2 D z |

